packages/netlify-cms-ui-default/src/Icon/images/list-bulleted.svg

<svg xmlns="http://www.w3.org/2000/svg" width="22" height="20" viewBox="0 0 22 20"><path fill="#7A8291" d="M281,12.5 C280.171573,12.5 279.5,11.8284271 279.5,11 C279.5,10.1715729 280.171573,9.5 281,9.5 C281.828427,9.5 282.5,10.1715729 282.5,11 C282.5,11.8284271 281.828427,12.5 281,12.5 Z M281,17.5 C280.171573,17.5 279.5,16.8284271 279.5,16 C279.5,15.1715729 280.171573,14.5 281,14.5 C281.828427,14.5 282.5,15.1715729 282.5,16 C282.5,16.8284271 281.828427,17.5 281,17.5 Z M281,22.5 C280.171573,22.5 279.5,21.8284271 279.5,21 C279.5,20.1715729 280.171573,19.5 281,19.5 C281.828427,19.5 282.5,20.1715729 282.5,21 C282.5,21.8284271 281.828427,22.5 281,22.5 Z M285,10 L295,10 L295,11.964 L285,11.964 L285,10 Z M285,15 L295,15 L295,17 L285,17 L285,15 Z M285,20 L295,20 L295,22 L285,22 L285,20 Z" transform="translate(-276 -6)"/></svg>

<svg height="20" viewBox="0 0 22 20" width="22" xmlns="http://www.w3.org/2000/svg"><path d="m281 12.5c-.828427 0-1.5-.6715729-1.5-1.5s.671573-1.5 1.5-1.5 1.5.6715729 1.5 1.5-.671573 1.5-1.5 1.5zm0 5c-.828427 0-1.5-.6715729-1.5-1.5s.671573-1.5 1.5-1.5 1.5.6715729 1.5 1.5-.671573 1.5-1.5 1.5zm0 5c-.828427 0-1.5-.6715729-1.5-1.5s.671573-1.5 1.5-1.5 1.5.6715729 1.5 1.5-.671573 1.5-1.5 1.5zm4-12.5h10v1.964h-10zm0 5h10v2h-10zm0 5h10v2h-10z" fill="#7a8291" transform="translate(-276 -6)"/></svg>
